X: 17061
T: Heather's
R: jig
M: 6/8
K: Dmixolydian
|:FGA B2G|cdc BAG|AFD DED|AFD D2E|
FGA c2A|ded cAG|AdB cGE|1 DED D2A,:|2 DED D2F||
|:GFG c2A|d2A efg|f2d d^cd|afd dAB|
c3 E3|GFG EFG|AFD DED|AFD D2E:|

